dist/img/mastercard.svg

<svg width="65" height="39" viewBox="0 0 65 39" fill="none" xmlns="http://www.w3.org/2000/svg">
<path d="M64.9997 19.5001C64.9997 30.2002 56.2997 39.0002 45.4996 39.0002C34.7996 39.0002 25.9995 30.2002 25.9995 19.5001C25.9995 8.80004 34.6996 0 45.3996 0C56.2997 0 64.9997 8.80004 64.9997 19.5001Z" fill="#F9B50B"/>
<path d="M38.9002 19.6001C38.9002 18.2001 38.7002 16.8001 38.5002 15.5001H26.5001C26.6001 14.8001 26.8001 14.2001 27.0001 13.4001H37.7002C37.5002 12.7001 37.2002 12.0001 36.9002 11.3001H27.8001C28.1001 10.6001 28.5001 10 28.9001 9.20005H35.8002C35.4002 8.50004 34.9002 7.80004 34.3002 7.10004H30.5002C31.1002 6.40003 31.7002 5.80003 32.5002 5.10003C29.1001 1.90001 24.5001 0 19.4001 0C8.80004 0.300002 0 8.80004 0 19.5001C0 30.2002 8.70004 39.0002 19.5001 39.0002C24.6001 39.0002 29.1001 37.0002 32.6002 33.9002C33.3002 33.3002 33.9002 32.6002 34.6002 31.8002H30.6002C30.1002 31.2002 29.6001 30.5002 29.2001 29.8001H36.0002C36.4002 29.2001 36.8002 28.5001 37.1002 27.7001H28.0001C27.7001 27.1001 27.4001 26.4001 27.2001 25.6001H37.9002C38.5002 23.8001 38.9002 21.8001 38.9002 19.6001Z" fill="#C8191C"/>
<path d="M26.3999 24.4985L26.6999 22.6985C26.5999 22.6985 26.3999 22.7985 26.1999 22.7985C25.4999 22.7985 25.3999 22.3985 25.4999 22.1985L26.0999 18.5985H27.1999L27.4999 16.5984H26.4999L26.6999 15.3984H24.5999C24.5999 15.3984 23.3999 22.1985 23.3999 22.9985C23.3999 24.1985 24.0999 24.7985 25.0999 24.7985C25.6999 24.7985 26.1999 24.5985 26.3999 24.4985Z" fill="white"/>
<path d="M27.0996 21.1938C27.0996 24.0938 29.0996 24.7938 30.6996 24.7938C32.1996 24.7938 32.8996 24.4938 32.8996 24.4938L33.2996 22.4938C33.2996 22.4938 32.1996 22.9938 31.0996 22.9938C28.7996 22.9938 29.1996 21.2938 29.1996 21.2938H33.3996C33.3996 21.2938 33.6996 19.9938 33.6996 19.3938C33.6996 18.0938 32.9996 16.3938 30.6996 16.3938C28.6996 16.2938 27.0996 18.5938 27.0996 21.1938ZM30.6996 18.1938C31.7996 18.1938 31.5996 19.4938 31.5996 19.5938H29.2996C29.3996 19.4938 29.5996 18.1938 30.6996 18.1938Z" fill="white"/>
<path d="M43.8001 24.4985L44.2001 22.1985C44.2001 22.1985 43.2001 22.6985 42.4001 22.6985C41.0001 22.6985 40.3001 21.5985 40.3001 20.2985C40.3001 17.7985 41.5001 16.4984 43.0001 16.4984C44.0001 16.4984 44.9001 17.0985 44.9001 17.0985L45.2001 14.8984C45.2001 14.8984 44.0001 14.3984 42.8001 14.3984C40.4001 14.3984 38.1001 16.4984 38.1001 20.3985C38.1001 22.9985 39.3001 24.6985 41.8001 24.6985C42.7001 24.7985 43.8001 24.4985 43.8001 24.4985Z" fill="white"/>
<path d="M15.1002 16.3008C13.7002 16.3008 12.6002 16.7008 12.6002 16.7008L12.3002 18.5008C12.3002 18.5008 13.2002 18.1008 14.6002 18.1008C15.3002 18.1008 15.9002 18.2008 15.9002 18.8008C15.9002 19.2008 15.8002 19.3008 15.8002 19.3008H14.9002C13.1002 19.3008 11.2002 20.0008 11.2002 22.4008C11.2002 24.3008 12.4002 24.7008 13.2002 24.7008C14.6002 24.7008 15.3002 23.8008 15.4002 23.8008L15.3002 24.6008H17.0002L17.8002 18.9008C17.8002 16.4008 15.8002 16.3008 15.1002 16.3008ZM15.5002 20.9008C15.5002 21.2008 15.3002 22.9008 14.1002 22.9008C13.5002 22.9008 13.3002 22.4008 13.3002 22.1008C13.3002 21.6008 13.6002 20.9008 15.2002 20.9008C15.4002 20.9008 15.5002 20.9008 15.5002 20.9008Z" fill="white"/>
<path d="M19.7998 24.6954C20.2998 24.6954 22.8998 24.7954 22.8998 21.9953C22.8998 19.3953 20.3998 19.8953 20.3998 18.8953C20.3998 18.3953 20.7998 18.1953 21.4998 18.1953C21.7998 18.1953 22.8998 18.2953 22.8998 18.2953L23.1998 16.3953C23.1998 16.3953 22.4998 16.1953 21.1998 16.1953C19.6998 16.1953 18.0998 16.7953 18.0998 18.8953C18.0998 21.2953 20.6998 21.0953 20.6998 21.9953C20.6998 22.5953 19.9998 22.6953 19.4998 22.6953C18.5998 22.6953 17.5998 22.3953 17.5998 22.3953L17.2998 24.2954C17.4998 24.4954 18.0998 24.6954 19.7998 24.6954Z" fill="white"/>
<path d="M61.0006 14.6992L60.6006 17.4992C60.6006 17.4992 59.8006 16.4992 58.6006 16.4992C56.7006 16.4992 55.1006 18.7992 55.1006 21.4993C55.1006 23.1993 55.9006 24.8993 57.7006 24.8993C58.9006 24.8993 59.7006 24.0993 59.7006 24.0993L59.6006 24.7993H61.7006L63.2006 14.8992L61.0006 14.6992ZM60.0006 20.0992C60.0006 21.1993 59.5006 22.6993 58.3006 22.6993C57.6006 22.6993 57.2006 22.0993 57.2006 20.9993C57.2006 19.2992 57.9006 18.2992 58.9006 18.2992C59.6006 18.3992 60.0006 18.8992 60.0006 20.0992Z" fill="white"/>
<path d="M3.79981 24.5993L4.99982 17.1992L5.19982 24.5993H6.59983L9.29984 17.1992L8.19984 24.5993H10.3998L12.0999 14.6992H8.69984L6.59983 20.7992L6.49983 14.6992H3.49981L1.7998 24.5993H3.79981Z" fill="white"/>
<path d="M35.8 24.5961C36.4 21.1961 36.5 18.3961 38 18.8961C38.2 17.5961 38.5 16.9961 38.7 16.4961H38.3C37.4 16.4961 36.6 17.6961 36.6 17.6961L36.8 16.5961H34.8L33.5 24.5961H35.8Z" fill="white"/>
<path d="M48.5997 16.3008C47.1997 16.3008 46.0997 16.7008 46.0997 16.7008L45.7997 18.5008C45.7997 18.5008 46.6997 18.1008 48.0997 18.1008C48.7997 18.1008 49.3997 18.2008 49.3997 18.8008C49.3997 19.2008 49.2997 19.3008 49.2997 19.3008H48.3997C46.5997 19.3008 44.6997 20.0008 44.6997 22.4008C44.6997 24.3008 45.8997 24.7008 46.6997 24.7008C48.0997 24.7008 48.7997 23.8008 48.8997 23.8008L48.7997 24.6008H50.6997L51.4997 18.9008C51.4997 16.4008 49.2997 16.3008 48.5997 16.3008ZM49.0997 20.9008C49.0997 21.2008 48.8997 22.9008 47.6997 22.9008C47.0997 22.9008 46.8997 22.4008 46.8997 22.1008C46.8997 21.6008 47.1997 20.9008 48.7997 20.9008C48.9997 20.9008 48.9997 20.9008 49.0997 20.9008Z" fill="white"/>
<path d="M53.0988 24.5961C53.6988 21.1961 53.7988 18.3961 55.2989 18.8961C55.4989 17.5961 55.7989 16.9961 55.9989 16.4961H55.5989C54.6988 16.4961 53.8988 17.6961 53.8988 17.6961L54.0988 16.5961H52.0988L50.7988 24.5961H53.0988Z" fill="white"/>
</svg>

<svg width="65" height="39" fill="none" xmlns="http://www.w3.org/2000/svg"><path d="M65 19.5C65 30.2 56.3 39 45.5 39 34.8 39 26 30.2 26 19.5S34.7 0 45.4 0C56.3 0 65 8.8 65 19.5z" fill="#F9B50B"/><path d="M38.9 19.6c0-1.4-.2-2.8-.4-4.1h-12c.1-.7.3-1.3.5-2.1h10.7c-.2-.7-.5-1.4-.8-2.1h-9.1c.3-.7.7-1.3 1.1-2.1h6.9c-.4-.7-.9-1.4-1.5-2.1h-3.8c.6-.7 1.2-1.3 2-2-3.4-3.2-8-5.1-13.1-5.1C8.8.3 0 8.8 0 19.5S8.7 39 19.5 39c5.1 0 9.6-2 13.1-5.1.7-.6 1.3-1.3 2-2.1h-4c-.5-.6-1-1.3-1.4-2H36c.4-.6.8-1.3 1.1-2.1H28c-.3-.6-.6-1.3-.8-2.1h10.7c.6-1.8 1-3.8 1-6z" fill="#C8191C"/><path d="M26.4 24.498l.3-1.8c-.1 0-.3.1-.5.1-.7 0-.8-.4-.7-.6l.6-3.6h1.1l.3-2h-1l.2-1.2h-2.1s-1.2 6.8-1.2 7.6c0 1.2.7 1.8 1.7 1.8.6 0 1.1-.2 1.3-.3zm.7-3.304c0 2.9 2 3.6 3.6 3.6 1.5 0 2.2-.3 2.2-.3l.4-2s-1.1.5-2.2.5c-2.3 0-1.9-1.7-1.9-1.7h4.2s.3-1.3.3-1.9c0-1.3-.7-3-3-3-2-.1-3.6 2.2-3.6 4.8zm3.6-3c1.1 0 .9 1.3.9 1.4h-2.3c.1-.1.3-1.4 1.4-1.4zm13.1 6.304l.4-2.3s-1 .5-1.8.5c-1.4 0-2.1-1.1-2.1-2.4 0-2.5 1.2-3.8 2.7-3.8 1 0 1.9.6 1.9.6l.3-2.2s-1.2-.5-2.4-.5c-2.4 0-4.7 2.1-4.7 6 0 2.6 1.2 4.3 3.7 4.3.9.1 2-.2 2-.2zM15.1 16.3c-1.4 0-2.5.4-2.5.4l-.3 1.8s.9-.4 2.3-.4c.7 0 1.3.1 1.3.7 0 .4-.1.5-.1.5h-.9c-1.8 0-3.7.7-3.7 3.1 0 1.9 1.2 2.3 2 2.3 1.4 0 2.1-.9 2.2-.9l-.1.8H17l.8-5.7c0-2.5-2-2.6-2.7-2.6zm.4 4.6c0 .3-.2 2-1.4 2-.6 0-.8-.5-.8-.8 0-.5.3-1.2 1.9-1.2h.3zm4.3 3.795c.5 0 3.1.1 3.1-2.7 0-2.6-2.5-2.1-2.5-3.1 0-.5.4-.7 1.1-.7.3 0 1.4.1 1.4.1l.3-1.9s-.7-.2-2-.2c-1.5 0-3.1.6-3.1 2.7 0 2.4 2.6 2.2 2.6 3.1 0 .6-.7.7-1.2.7-.9 0-1.9-.3-1.9-.3l-.3 1.9c.2.2.8.4 2.5.4zM61 14.7l-.4 2.8s-.8-1-2-1c-1.9 0-3.5 2.3-3.5 5 0 1.7.8 3.4 2.6 3.4 1.2 0 2-.8 2-.8l-.1.7h2.1l1.5-9.9-2.2-.2zm-1 5.4c0 1.1-.5 2.6-1.7 2.6-.7 0-1.1-.6-1.1-1.7 0-1.7.7-2.7 1.7-2.7.7.1 1.1.6 1.1 1.8zM3.8 24.6L5 17.2l.2 7.4h1.4l2.7-7.4-1.1 7.4h2.2l1.7-9.9H8.7l-2.1 6.1-.1-6.1h-3l-1.7 9.9h2z" fill="#fff"/><path d="M35.8 24.596c.6-3.4.7-6.2 2.2-5.7.2-1.3.5-1.9.7-2.4h-.4c-.9 0-1.7 1.2-1.7 1.2l.2-1.1h-2l-1.3 8h2.3zM48.6 16.3c-1.4 0-2.5.4-2.5.4l-.3 1.8s.9-.4 2.3-.4c.7 0 1.3.1 1.3.7 0 .4-.1.5-.1.5h-.9c-1.8 0-3.7.7-3.7 3.1 0 1.9 1.2 2.3 2 2.3 1.4 0 2.1-.9 2.2-.9l-.1.8h1.9l.8-5.7c0-2.5-2.2-2.6-2.9-2.6zm.5 4.6c0 .3-.2 2-1.4 2-.6 0-.8-.5-.8-.8 0-.5.3-1.2 1.9-1.2h.3zm3.999 3.696c.6-3.4.7-6.2 2.2-5.7.2-1.3.5-1.9.7-2.4h-.4c-.9 0-1.7 1.2-1.7 1.2l.2-1.1h-2l-1.3 8h2.3z" fill="#fff"/></svg>
